X: 13
M: 2/4
L: 1/16
Q: 1/4=112
K: C
                                               :|2 "F"Ac"C"GE "G"({F}ED)D2 |]
|: "C"gage {d}cBcd | "Am"ea{b}ag age^f | "Em"gage "C"{d}cBcd |1 "C"ea(ag) "G"(ed)de \
                                                            :|2 "C"ea(ag) "G"(ed)d2 |]


